!!!COM: (Achille-) Claude Debussy
!!!OTL: [T151_Deb-w2p19m5-12]
**kern	**kern	**dynam	**kern	**text	**text	**dynam
*part2	*part2	*part2	*part1	*part1	*part1	*part1
*staff3	*staff2	*	*staff1	*staff1	*staff1	*
*I"Piano	*	*	*I"Soprano Solo	*	*	*
*I'Pno.	*	*	*I'S. Solo	*	*	*
!!pagebreak:original
*clefF4	*clefG2	*	*clefG2	*	*	*
*k[b-e-a-d-g-c-]	*k[b-e-a-d-g-c-]	*	*k[b-e-a-d-g-c-]	*	*	*
*G-:	*G-:	*	*G-:	*	*	*
*M6/8	*M6/8	*	*M6/8	*	*	*
=1	=1	=1	=1	=1	=1	=1
*^	*	*	*	*	*	*
!	!	!	!	!LO:TX:t=[quarter-dot]=80	!	!	!
16%3AA-L 16%3E-	4.ryy	8r	.	16%3r	.	.	p
.	.	(8ee-L 8eee-	pp	.	.	.	.
[16%3A-J [16%3c- [16%3e-	.	.	.	16%3a-	Voi-	Ac-	.
.	.	8a-J 8aa-)	.	.	.	.	.
4.A-] 4.c-] 4.e-]	[4.E-	8r	.	(16%3b-	-ci	-cept	.
.	.	(8ee-L 8eee-	.	.	.	.	.
.	.	.	.	16%3cc-)	des	these	.
.	.	8aa-J 8aaa-)	.	.	.	.	.
=2	=2	=2	=2	=2	=2	=2	=2
4.f-X	2.E-] 2.A- 2.c-	8r	.	(16%3cc-	fruits,	rud-	.
.	.	(8ee-L 8eee-	.	.	.	.	.
.	.	.	.	16%3ee-)	des	-dy	.
.	.	8a-J 8aa-)	.	.	.	.	.
4.fn	.	8r	.	4ee-	fleurs,	fruits,	.
.	.	(8ee-L 8eee-	.	.	.	.	.
.	.	8aa-J 8aaa-)	.	(8ee-	des	this	.
=3	=3	=3	=3	=3	=3	=3	=3
16%3AA-L 16%3E-	4.ryy	8r	.	4aa-	feuil-	fol-	.
.	.	(8ee-L 8eee-	pp	.	.	.	.
[16%3A-J [16%3c- [16%3e-	.	.	.	.	.	.	.
.	.	8a-J 8aa-)	.	8ee-	-les	-iage	.
4.A-] 4.c-] 4.e-]	[4.E-	8r	.	8cc-L	et	from	.
.	.	(8ee-L 8eee-	.	8b-J	.	.	.
.	.	8aa-J 8aaa-)	.	8cc-	des	the	.
=4	=4	=4	=4	=4	=4	=4	=4
4.f-X	2.E-] 2.A- 2.c-	8r	.	4.b-	bran-	bow-	.
.	.	(8ee-L 8eee-	.	.	.	.	.
.	.	8a-J 8aa-)	.	.	.	.	.
4.fn	.	8r	.	4a-)	-ches	-er,	.
.	.	(8ee-L 8eee-	.	.	.	.	.
.	.	8aa-J 8aaa-)	.	8r	.	.	.
!!linebreak:original
=5	=5	=5	=5	=5	=5	=5	=5
*	*^	*	*	*	*	*	*
2.ryy	[2.DD-	[2.F/	[2.c- [2.e-	p > ] p > ]	16%3r	.	.	.
.	.	.	.	.	.	.	.	.
.	.	.	.	.	16%3a-~	Et	and	p
.	.	.	.	.	.	.	.	.
.	.	.	.	.	16%3cc-~	puis	this	.
.	.	.	.	.	16%3ee-~	voi-	my	.
=6	=6	=6	=6	=6	=6	=6	=6	=6
*	*	*	*^	*	*	*	*	*
8r	2.GG-	2.F-X/	4%3ryy	2.B- 2.d-	.	16%3b-~	-ci	lov-	.
8A--'L	.	.	.	.	.	.	.	.	.
.	.	.	.	.	.	16%3dd-~	mon	-ing	.
8D-'J	.	.	.	.	.	.	.	.	.
4A'~	.	.	.	.	.	4.ee-~	cœur	heart,	.
8ryy	.	.	.	.	.	.	.	.	.
*	*	*	*v	*v	*	*	*	*	*
=7	=7	=7	=7	=7	=7	=7	=7	=7
2.ryy	2.DD-_	2.Fn/_	2.c-] 2.e-]	p > ] p > ]	8r	.	.	.
.	.	.	.	.	8ff	qui	a	.
.	.	.	.	.	8ee-	ne	ti-	.
.	.	.	.	.	8dd-	bat	-mid	.
!	!	!	!	!	!LO:TX:a:i:t=rit.	!	!	!
.	.	.	.	.	8cc-	que	blush-	.
.	.	.	.	.	8ee-	pour	-ing	.
=8	=8	=8	=8	=8	=8	=8	=8	=8
*	*	*	*^	*	*	*	*	*
8r	2.GG-	2.F-X/	4r	2.B- 2.d-	.	(4.b-	vous.	flow-	.
8G-'L	.	.	.	.	.	.	.	.	.
!	!	!	!LO:TX:b:i:t=dim.	!	!	!	!	!	!
8D-'J	.	.	8r	.	.	.	.	.	.
4A-'~	.	.	8r	.	.	4.a-)	.	-er,	.
.	.	.	(8a-L	.	.	.	.	.	.
8ryy	.	.	8d-J)	.	.	.	.	.	.
*v	*v	*v	*	*	*	*	*	*	*
*	*v	*v	*	*	*	*	*
=	=	=	=	=	=	=
*-	*-	*-	*-	*-	*-	*-
!!!system-decoration: s1[({(s2,s3)})]
